!!!!SEGMENT: pl-wru--50044-muz--001-022_buchner-philipp-friedrich--plectrum-musicum-sonata-xxii.krn
!!!cenid: 16xx:1823
!!!COM: Buchner, Philipp Friedrich
!!!COM-rismID: pe30013776
!!!CDT: 1614/09/10-1669/03/23
!!!CNT: German
!!!GTL: Plectrum musicum
!!!OTL: Sonata XXII
!!!OMV: 022
!!!PDT: 1662
!!!AGN:
!!!YEC: Copyright 2022 Narodowy Instytut Fryderyka Chopina (https://polishscores.org)
!!!YEM: License CC-BY-4.0 (https://creativecommons.org/licenses/by/4.0)
!!!SMS-siglum: PL-WRu
!!!SMS-shelfmark: 50044 Muz.
!!!SMS-shelfwork: 001-022 G
!!!SMS-variant:
!!!SMS-altvar:
!!!NIFC-rismSourceID: 990007465
!!!NIFC-rismChildID: 990007465
!!!NIFC-islandoraID: none
!!!URL-pdf-islandora:
!!!URL-scan: https://www.bibliotekacyfrowa.pl/dlibra/doccontent?id=116 @EN{Scan on Digital Library of University of Wroclaw} @PL{Skany w portalu Biblioteka Cyfrowa Uniwersytetu Wrocławskiego}
!!!IIIF:
!!!ONB-nifc: UWAGA: Violino I: s. 18-19, Violino II: s. 32, Viola da braccio: s. 39, Viola da gamba: s. 49, Fagotto: s. 62, Bassus: s. 77, Bassus continuus: s. 92
!!!AIN: 1 fagot 1 violb 2 violn
!!!key: c
**kern	**fba	**kern	**fba	**kern	**kern	**kern	**kern	**kern
*group3	*	*group2	*	*group2	*group2	*group2	*group2	*group1
*part7	*	*part6	*	*part5	*part4	*part3	*part2	*part1
*staff7	*	*staff6	*	*staff5	*staff4	*staff3	*staff2	*staff1
*I"BASSVS CONTINUUS.	*	*I"BASSVS	*	*I"VIOLA DA GAMBA	*I"VIOLA DA BRACCIO.	*I"VIOLINO II.	*I"VIOLINO I.	*I"FAGOTTO.
*I'bc	*	*I'b	*	*I'vla da gamba	*I'vla da braccio	*I'vl 2	*I'vl 1	*I'fag
*	*	*	*	*Iviolb	*	*Ivioln	*Ivioln	*Ifagot
*ICklav	*	*ICstr	*	*ICstr	*ICstr	*ICstr	*ICstr	*ICww
*IGcont	*	*IGcont	*IGcont	*	*	*	*	*
*clefF4	*	*clefF4	*	*clefC4	*clefC3	*clefG2	*clefG2	*clefF4
*k[b-e-]	*	*k[b-e-]	*	*k[e-b-]	*k[e-b-]	*k[e-b-]	*k[e-b-]	*k[b-e-]
*c:	*	*c:	*	*c:	*c:	*c:	*c:	*c:
*M3/2	*	*M3/2	*	*M3/2	*M3/2	*M3/2	*M3/2	*M3/2
=1-	=1-	=1-	=1-	=1-	=1-	=1-	=1-	=1-
!LO:TX:t=P:problem:w źródle przy kluczu jeszcze B- nad BB-	!	!LO:TX:t=P:problem:w źródle przy kluczu jeszcze B- nad BB-	!	!LO:TX:t=P:problem:w źródle przy kluczu jeszcze E- pod e-	!LO:TX:t=P:problem:w źródle przy kluczu jeszcze E- pod e-	!LO:TX:t=P:problem:w źródle przy kluczu jeszcze e- pod ee-	!LO:TX:t=P:problem:w źródle przy kluczu jeszcze e- pod ee-	!LO:TX:t=P:problem:w źródle przy kluczu jeszcze B- nad BB-
!LO:TX:b:t=adagio.	!	!LO:TX:b:t=adagio.	!	!LO:TX:b:t=Adagio.	!LO:TX:b:t=Adagio.	!LO:TX:b:t=Adagio.	!LO:TX:b:t=Adagio.	!LO:TX:b:t=Adagio.
2C/	.	2C/	.	2G/	2e-\	2cc\	2.gg\	2C/
!LO:N:acc=#	!	!LO:N:acc=#	!	!	!	!	!	!LO:N:acc=#
2BBn/	.	2BBn/	.	2G/	2d\	2dd\	.	2BBn/
.	.	.	.	.	.	.	4ff\	.
2C/	.	2C/	.	2G/	4e-\	2cc\	2ee-\	2C/
.	.	.	.	.	4f\	.	.	.
=2-	=2-	=2-	=2-	=2-	=2-	=2-	=2-	=2-
!	!	!	!	!	!	!LO:N:acc=#	!	!
2.GG/	.	2.GG/	.	2G/	1.g	2.bn/	1.dd	2.GG/
.	.	.	.	2d\	.	.	.	.
4AA/	.	4AA/	.	.	.	4cc\	.	4AA/
!LO:N:acc=#	!	!LO:N:acc=#	!	!	!	!	!	!LO:N:acc=#
2BBn/	.	2BBn/	.	4g\	.	2dd\	.	2BBn/
.	.	.	.	4f\	.	.	.	.
=3-	=3-	=3-	=3-	=3-	=3-	=3-	=3-	=3-
2C/	.	2C/	.	2e-\	2g\	4.ee-\	2cc\	2C/
.	.	.	.	.	.	8ff\	.	.
!	!	!	!	!	!	!	!LO:N:acc=#	!
2G\	#n	2G\	#n	2d\	2g\	2gg\	2bn/	2G\
2A-X\	6	2A-X\	6	2f\	2c/	2ff\	2cc\	2A-X\
=4-	=4-	=4-	=4-	=4-	=4-	=4-	=4-	=4-
!	!	!	!	!LO:TX:t=P:problem:kreska pseudotaktowa jako przecinek:global	!	!	!	!
!LO:TX:t=P:problem:kreska pseudotaktowa jako przecinek:global	!	!LO:TX:t=P:problem:kreska pseudotaktowa jako przecinek:global	!	!LO:N:acc=#	!	!LO:TX:t=P:problem:kreska pseudotaktowa jako przecinek:global	!	!LO:TX:t=P:problem:kreska pseudotaktowa jako przecinek:global
1.G	-	1.G	-	1.Bn	1.g	1.gg	1.dd	1.G
=5-	=5-	=5-	=5-	=5-	=5-	=5-	=5-	=5-
2C/	.	2C/	.	2c\	2e-\	2.gg\	2cc\	2C/
!LO:N:acc=#	!	!LO:N:acc=#	!	!	!	!	!	!LO:N:acc=#
2BBn/	.	2BBn/	.	2G/	2d\	.	2dd\	2BBn/
.	.	.	.	.	.	4ff\	.	.
2C/	.	2C/	.	2G/	4e-\	2ee-\	2cc\	2C/
.	.	.	.	.	4f\	.	.	.
=6-	=6-	=6-	=6-	=6-	=6-	=6-	=6-	=6-
!	!	!	!	!	!	!	!LO:N:acc=#	!
2.GG/	#n	2.GG/	#n	2G/	1.g	1.dd	2.bn/	2.GG/
.	.	.	.	2d\	.	.	.	.
4AA/	.	4AA/	.	.	.	.	4cc\	4AA/
!LO:N:acc=#	!	!LO:N:acc=#	!	!	!	!	!	!LO:N:acc=#
2BBn/	.	2BBn/	.	4g\	.	.	2dd\	2BBn/
.	.	.	.	4f\	.	.	.	.
=7-	=7-	=7-	=7-	=7-	=7-	=7-	=7-	=7-
2C/	.	2C/	.	2e-\	2g\	2cc\	4.ee-\	2C/
.	.	.	.	.	.	.	8ff\	.
!	!	!	!	!	!	!LO:N:acc=#	!	!
2G\	#n	2G\	#n	2d\	2g\	2bn/	2gg\	2G\
2A-X\	6	2A-X\	6	2f\	2c/	2cc\	2ff\	2A-X\
=8-	=8-	=8-	=8-	=8-	=8-	=8-	=8-	=8-
!	!	!	!	!LO:N:acc=#	!	!	!	!
2.G\	#n	2.G\	#n	1Bn	1.g	1dd	2.gg\	2.G\
4F\	.	4F\	.	.	.	.	4dd\	4F\
!LO:TX:t=P:problem:kreska pseudotaktowa	!	!LO:TX:t=P:problem:kreska pseudotaktowa	!	!	!	!	!	!
2E-\	6	2E-\	6	2c\	.	2g/	2ee-\	2E-\
=9-	=9-	=9-	=9-	=9-	=9-	=9-	=9-	=9-
*	*	*	*	*	*col	*	*	*
2D/	.	2D/	.	2F/	2d\	2a/	2ff\	2D/
*col	*	*col	*	*col	*	*	*	*
1C	6	1C	6	1c	1e-	2.a/	2.ee-\	2.C/
.	.	.	.	.	.	4a/	4ff\	4D/
*Xcol	*	*Xcol	*	*Xcol	*Xcol	*	*	*
=10-	=10-	=10-	=10-	=10-	=10-	=10-	=10-	=10-
2BB-y/	.	2BB-y/	.	2.F/	1.f	2b-y/	2dd\	2BB-y/
*col	*	*col	*	*	*	*	*	*col
1F	.	1F	.	.	.	2.a/	2.cc\	1F
.	.	.	.	4G/	.	.	.	.
.	.	.	.	2A/	.	.	.	.
!	!	!	!	!	!	!LO:TX:t=P:problem:kreska pseudotaktowa	!	!
.	.	.	.	.	.	4b-/	4dd\	.
*Xcol	*	*Xcol	*	*	*	*	*	*Xcol
=11-	=11-	=11-	=11-	=11-	=11-	=11-	=11-	=11-
*	*	*	*	*	*col	*	*	*
2G\	.	2G\	.	4B-y\	2d\	1g	2b-y/	2G\
.	4	.	4	4c\	.	.	.	.
*col	*	*col	*	*	*	*	*	*col
1D	#	1D	#	2d\	1d	.	2.a/	1D
.	.	.	.	2A/	.	2f#X/	.	.
.	.	.	.	.	.	.	4b-/	.
*Xcol	*	*Xcol	*	*	*Xcol	*	*	*Xcol
=12-	=12-	=12-	=12-	=12-	=12-	=12-	=12-	=12-
!	!	!	!	!LO:N:acc=#	!	!	!	!
1.GG	.	1.GG	.	1.Bn	1.d	1.g	1.g	1.GG
*custos:G	*	*custos:G	*	*	*	*	*	*
*clefC4	*	*clefC4	*	*custos:G	*	*	*	*
!LO:LB:g=original	!	!LO:LB:g=original	!	!LO:LB:g=original	!	!	!	!
=13-	=13-	=13-	=13-	=13-	=13-	=13-	=13-	=13-
!	!	!	!	!	!	!LO:N:acc=#	!	!LO:N:vis=0
2G/	#n	2G/	#n	2G/	2g\	2bn/	2dd\	0.r
*col	*	*col	*	*	*	*	*	*
1c	.	1c	.	2.c\	2.g\	2.cc\	2.ee-\	.
.	.	.	.	4c\	4g\	4cc\	4ee-\	.
*Xcol	*	*Xcol	*	*	*	*custos:a	*custos:cc	*
!	!	!	!	!	!	!LO:LB:g=original	!LO:LB:g=original	!
=14-	=14-	=14-	=14-	=14-	=14-	=14-	=14-	=14-
2F/	.	2F/	.	2F/	2f\	2a/	2cc\	.
*col	*	*col	*	*col	*col	*col	*col	*
!LO:TX:t=P:problem:znaki przykluczowe	!	!LO:TX:t=P:problem:znaki przykluczowe	!	!LO:TX:t=P:problem:kreska pseudotaktowa	!	!LO:TX:t=P:problem:kreska pseudotaktowa	!LO:TX:t=P:problem:kreska pseudotaktowa jako przecinek:global	!
1B-	.	1B-	.	1B-y	1f	1b-y	1dd	.
*Xcol	*	*Xcol	*	*Xcol	*Xcol	*Xcol	*Xcol	*
*clefF4	*	*clefF4	*	*	*custos:a	*	*	*custos:D
!	!	!	!	!	!LO:LB:g=original	!	!	!LO:LB:g=original
=15-	=15-	=15-	=15-	=15-	=15-	=15-	=15-	=15-
2D/	#	2D/	#	4A/	2a\	2ff#X\	2aa\	2D/
.	.	.	.	4d\	.	.	.	.
*col	*	*col	*	*	*	*	*	*
1G	#n	1G	#n	2.d\	2.g\	2.gg\	2.bb-\	2.G\
.	.	.	.	4d\	4g\	4gg\	4bb-\	4G\
*Xcol	*	*Xcol	*	*	*	*	*	*
=16-	=16-	=16-	=16-	=16-	=16-	=16-	=16-	=16-
!	!	!	!	!	!	!LO:N:acc=#	!	!
2C/	.	2C/	.	2c\	2g\	2een\	2gg\	2C/
*col	*	*col	*	*col	*col	*col	*col	*col
!LO:TX:t=P:problem:kreska pseudotaktowa	!	!LO:TX:t=P:problem:kreska pseudotaktowa	!	!LO:TX:t=P:problem:kreska pseudotaktowa	!LO:TX:t=P:problem:kreska pseudotaktowa jako przecinek:global	!LO:TX:t=P:problem:kreska pseudotaktowa	!LO:TX:t=P:problem:kreska pseudotaktowa	!LO:TX:t=P:problem:kreska pseudotaktowa
1F	.	1F	.	1c	1f	1ffny	1aa	1F
*Xcol	*	*Xcol	*	*Xcol	*Xcol	*Xcol	*Xcol	*Xcol
=17-	=17-	=17-	=17-	=17-	=17-	=17-	=17-	=17-
2F\	.	2F\	.	2f\	2a\	2cc\	2aa\	2F\
*col	*	*col	*	*	*	*	*	*
1B-	.	1B-	.	2.d\	2.f\	2.dd\	2.bb-\	2.B-\
.	.	.	.	4d\	4f\	4dd\	4bb-\	4B-\
*Xcol	*	*Xcol	*	*	*	*	*	*
=18-	=18-	=18-	=18-	=18-	=18-	=18-	=18-	=18-
!	!	!	!	!	!	!	!LO:N:vis=2.	!
2E-\	.	2E-\	.	2e-\	2g\	2b-/	2gg\	2E-\
*col	*	*col	*	*col	*	*col	*	*col
!	!	!	!	!	!	!	!	!LO:TX:t=P:problem:kreska pseudotaktowa
1A-X	7	1A-X	7	1c	2e-\	1cc	4gg\	1A-X
.	6	.	6	.	.	.	4ff\	.
.	.	.	.	.	2f\	.	2ff\	.
*Xcol	*	*Xcol	*	*Xcol	*	*Xcol	*	*Xcol
=19-	=19-	=19-	=19-	=19-	=19-	=19-	=19-	=19-
2.G\	.	2.G\	.	1d	1d	2.b-/	4gg\	2.G\
.	.	.	.	.	.	.	4g/	.
.	.	.	.	.	.	.	4b-/	.
4F\	.	4F\	.	.	.	4a/	4dd\	4F\
2E-\	6	2E-\	6	2c\	2e-\	4g/	2gg\	2E-\
.	.	.	.	.	.	4a/	.	.
=20-	=20-	=20-	=20-	=20-	=20-	=20-	=20-	=20-
*	*	*	*	*	*col	*	*	*
2D/	6	2D/	6	2d\	2f\	2b-/	2ff\	2D/
*col	*	*col	*	*col	*	*col	*	*col
1C	.	1C	.	1G	1g	1cc	2.ee-\	1C
.	.	.	.	.	.	.	4ff\	.
*Xcol	*	*Xcol	*	*Xcol	*Xcol	*Xcol	*	*Xcol
=21-	=21-	=21-	=21-	=21-	=21-	=21-	=21-	=21-
1.GG	4	1.GG	4	1.G	1.g	1cc	2dd\	1.GG
.	3	.	3	.	.	.	2.dd\	.
!	!	!	!	!	!	!LO:N:acc=#	!	!
.	.	.	.	.	.	2bn/	.	.
.	.	.	.	.	.	.	4ee-\	.
=22-	=22-	=22-	=22-	=22-	=22-	=22-	=22-	=22-
!	!	!LO:TX:t=P:problem:znaki przykluczowe	!	!LO:TX:t=P:problem:kreska pseudotaktowa	!LO:TX:t=P:problem:kreska pseudotaktowa	!	!LO:TX:t=P:problem:kreska pseudotaktowa	!
1.C	.	1.C	.	1.G	1.g	1.cc	1.cc	1.C
*clefC4	*	*clefC4	*	*	*	*	*	*
=23-	=23-	=23-	=23-	=23-	=23-	=23-	=23-	=23-
!	!	!	!	!	!	!	!	!LO:N:vis=00
2c\	.	2c\	.	2c\	2g\	2cc\	2ee-\	00.r
!LO:N:acc=#	!	!LO:N:acc=#	!	!LO:N:acc=#	!	!	!	!
2Bn\	.	2Bn\	.	4.Bn\	4.g\	4.dd\	4.dd\	.
.	.	.	.	8B\	8g\	8dd\	8dd\	.
!	!	!	!	!	!LO:TX:t=P:problem:kreska pseudotaktowa	!	!	!
2c\	.	2c\	.	2c\	2g\	2ee-y\	2cc\	.
=24-	=24-	=24-	=24-	=24-	=24-	=24-	=24-	=24-
4G/	.	4G/	.	4G/	2.g\	4dd\	4b-/	.
4Any/	.	4Any/	.	4A/	.	4cc\	4cc\	.
4B-y\	.	4B-y\	.	4B-y\	.	2b-y/	4dd\	.
4c\	.	4c\	.	4c\	4g\	.	4ee-\	.
4d\	.	4d\	.	4d\	4f\	2a/	2ff\	.
4c\	.	4c\	.	4c\	4e-\	.	.	.
*	*	*	*	*custos:B	*	*	*custos:gg	*
!	!	!	!	!LO:LB:g=original	!	!	!LO:LB:g=original	!
=25-	=25-	=25-	=25-	=25-	=25-	=25-	=25-	=25-
2B-\	.	2B-\	.	2B-\	2d\	2.dd\	2gg\	.
*col	*	*col	*	*col	*	*	*	*
1e-	7	1e-	7	1e-	2g\	.	2.gg\	.
.	6	.	6	.	.	4dd\	.	.
.	.	.	.	.	2g\	2cc\	.	.
.	.	.	.	.	.	.	4aa\	.
*Xcol	*	*Xcol	*	*Xcol	*	*	*	*
=26-	=26-	=26-	=26-	=26-	=26-	=26-	=26-	=26-
!	!	!	!	!LO:TX:t=P:problem:kreska pseudotaktowa	!	!	!LO:TX:t=P:problem:kreska pseudotaktowa	!
1.d	.	1.d	.	1.d	1.a	1.dd	1.ff#X	.
*custos:G	*	*custos:G	*	*	*custos:d	*custos:dd	*	*
*clefF4	*	*clefF4	*	*	*	*	*	*
!LO:PB:g=original	!	!LO:PB:g=original	!	!	!LO:LB:g=original	!LO:LB:g=original	!	!
=27-	=27-	=27-	=27-	=27-	=27-	=27-	=27-	=27-
2G\	.	2G\	.	2B-\	2d\	2dd\	2gg\	2G\
2F#X\	.	2F#X\	.	4.A/	4.d\	4.dd\	4.aa\	4.F#X\
.	.	.	.	8A/	8d\	8dd\	8aa\	8F#\
2G\	.	2G\	.	2B-\	2d\	4dd\	2gg\	2G\
.	.	.	.	.	.	4gg\	.	.
=28-	=28-	=28-	=28-	=28-	=28-	=28-	=28-	=28-
4C/	.	4C/	.	1c	4e-\	1ee-	1.gg	4C/
4D/	.	4D/	.	.	4f\	.	.	4D/
4E-\	.	4E-\	.	.	4g\	.	.	4E-\
4Fny\	.	4Fny\	.	.	4a\	.	.	4Fny\
4G\	.	4G\	.	2B-\	4b-\	2dd\	.	4G\
!	!	!	!	!	!LO:TX:t=P:problem:kreska pseudotaktowa	!	!	!
4F\	.	4F\	.	.	4a\	.	.	4F\
=29-	=29-	=29-	=29-	=29-	=29-	=29-	=29-	=29-
2E-\	.	2E-\	.	2B-\	4g\	4ee-\	2.gg\	2E-\
.	.	.	.	.	4f\	4dd\	.	.
*col	*	*col	*	*	*	*	*	*
1A-X	.	1A-X	.	2.c\	2e-\	2.cc\	.	2.A-X\
.	.	.	.	.	.	.	4gg\	.
.	.	.	.	.	2f\	.	2ffny\	.
.	.	.	.	4c\	.	4cc\	.	4A-\
*Xcol	*	*Xcol	*	*	*	*	*	*
=30-	=30-	=30-	=30-	=30-	=30-	=30-	=30-	=30-
!	!	!	!	!LO:TX:t=P:problem:kreska pseudotaktowa	!	!	!	!
!	!	!	!	!LO:N:acc=#	!	!LO:TX:t=P:problem:kreska pseudotaktowa	!	!
1.G	#n	1.G	#n	1.Bn	1.d	1.dd	1.gg	1.G
*	*	*	*	*	*	*	*	*custos:GG
!	!	!	!	!	!	!	!	!LO:LB:g=original
=31-	=31-	=31-	=31-	=31-	=31-	=31-	=31-	=31-
!	!	!	!	!LO:N:acc=#	!	!	!	!
1.GG	#n	1.GG	#n	2Bn\	2g\	2dd\	1.r	2GG/
.	.	.	.	4B\	4g\	4dd\	.	4GG/
.	.	.	.	2B\	2g\	2dd\	.	2GG/
!	!	!	!	!	!LO:TX:t=P:problem:kreska pseudotaktowa	!	!	!
.	.	.	.	4B\	4g\	4dd\	.	4GG/
=32-	=32-	=32-	=32-	=32-	=32-	=32-	=32-	=32-
!	!	!	!	!	!	!LO:N:acc=#	!	!
1.C	#n	1.C	#n	2c\	2g\	2een\	2gg\	2C/
.	.	.	.	4c\	4g\	4ee\	4gg\	4C/
.	.	.	.	2c\	2g\	2ee\	2gg\	2C/
!	!	!	!	!LO:TX:t=P:problem:kreska pseudotaktowa	!LO:TX:t=P:problem:kreska pseudotaktowa	!	!	!LO:TX:t=P:problem:kreska pseudotaktowa
.	.	.	.	4c\	4g\	4ee\	4gg\	4C/
=33-	=33-	=33-	=33-	=33-	=33-	=33-	=33-	=33-
1.FF	.	1.FF	.	2c\	2f\	1.ff	2aa\	2FF/
.	.	.	.	4c\	4f\	.	4aa\	4FF/
.	.	.	.	2c\	2f\	.	2aa\	2FF/
.	.	.	.	4c\	4f\	.	4aa\	4FF/
=34-	=34-	=34-	=34-	=34-	=34-	=34-	=34-	=34-
2BB-/	.	2BB-/	.	2B-y\	2f\	2ff\	2bb-\	2BB-/
2r	.	2r	.	2r	2r	2r	2r	2r
!LO:TX:t=P:problem:kreska pseudotaktowa	!	!LO:TX:t=P:problem:kreska pseudotaktowa	!	!	!	!LO:TX:t=P:problem:kreska pseudotaktowa	!LO:TX:t=P:problem:kreska pseudotaktowa	!
!LO:TX:t=P:problem:znaki przykluczowe	!	!LO:TX:t=P:problem:znaki przykluczowe	!	!	!	!	!	!
2r	.	2r	.	2r	2r	2r	2r	2r
*clefC4	*	*clefC4	*	*	*custos:f	*	*	*
!	!	!	!	!	!LO:LB:g=original	!	!	!
=35-	=35-	=35-	=35-	=35-	=35-	=35-	=35-	=35-
!	!	!	!	!	!	!	!	!LO:N:vis=0
2B-\	.	2B-\	.	2B-\	2f\	2dd\	2ff\	0.r
2Any/	.	2Any/	.	4.A/	4.a\	4.cc\	4.ff\	.
.	.	.	.	8A/	8a\	8cc\	8ff\	.
2B-\	.	2B-\	.	2B-\	2f\	4dd\	4ff\	.
.	.	.	.	.	.	4ee-y\	4gg\	.
=36-	=36-	=36-	=36-	=36-	=36-	=36-	=36-	=36-
4F/	.	4F/	.	4F/	4A/	2.ff\	1aa	.
4G/	.	4G/	.	4G/	4B-/	.	.	.
4A/	.	4A/	.	4A/	4c/	.	.	.
4B-\	.	4B-\	.	4B-\	4d\	4ff\	.	.
!	!	!	!	!	!LO:TX:t=P:problem:kreska pseudotaktowa między nutą a kropką	!	!	!
!	!	!	!	!	!LO:N:acc=#	!LO:N:acc=#	!	!
4c\	.	4c\	.	4c\	[y2en\	4een\	2gg\	.
4B-\	.	4B-\	.	4B-\	.	4dd\	.	.
*	*	*	*	*custos:A	*	*	*	*
!	!	!	!	!LO:LB:g=original	!	!	!	!
=37-	=37-	=37-	=37-	=37-	=37-	=37-	=37-	=37-
!	!	!	!	!	!LO:N:xstem:cue	!	!	!LO:N:vis=0
2A\	5	2A/	5	2A/	4e\]	2.cc\	2aa\	0.r
!	!	!	!	!	!LO:N:acc=#	!	!	!
.	.	.	.	.	4en\	.	.	.
*col	*	*col	*	*	*	*	*	*
1d	7	1d	7	2.d\	2.f\	.	2.ff\	.
.	6	.	6	.	.	4cc\	.	.
!	!	!	!	!	!	!LO:N:acc=#	!	!
.	.	.	.	.	.	2bn/	.	.
.	.	.	.	4d\	4f\	.	4ff\	.
*Xcol	*	*Xcol	*	*	*	*custos:cc	*	*
!	!	!	!	!	!	!LO:LB:g=original	!	!
=38-	=38-	=38-	=38-	=38-	=38-	=38-	=38-	=38-
!LO:TX:t=P:problem:znaki przykluczowe	!	!LO:TX:t=P:problem:znaki przykluczowe	!	!LO:TX:t=P:problem:kreska pseudotaktowa	!LO:TX:t=P:problem:kreska pseudotaktowa	!	!LO:N:acc=#	!
1.c	.	1.c	.	1.c	1.g	1.cc	1.een	.
*clefF4	*	*clefF4	*	*	*	*	*custos:ff	*
!	!	!	!	!	!	!	!LO:LB:g=original	!
=39-	=39-	=39-	=39-	=39-	=39-	=39-	=39-	=39-
2F\	.	2F\	.	2A/	2f\	2cc\	2ff\	2F\
*custos:E	*	*custos:E	*	*	*	*	*	*
!LO:LB:g=original	!	!LO:LB:g=original	!	!	!	!	!	!
!LO:N:acc=#	!	!LO:N:acc=#	!	!	!	!	!	!LO:N:acc=#
2En\	.	2En\	.	4.G/	4.c/	4.cc\	4.gg\	4.En\
.	.	.	.	8G/	8c/	8cc\	8gg\	8E\
2F\	.	2F\	.	2A/	2f\	2cc\	2ff\	2F\
=40-	=40-	=40-	=40-	=40-	=40-	=40-	=40-	=40-
4BB-/	.	4BB-/	.	1B-	4d\	1dd	1.ff	4BB-/
4C/	.	4C/	.	.	4e-y\	.	.	4C/
4D/	.	4D/	.	.	4f\	.	.	4D/
!	!	!	!	!	!	!	!	!LO:N:acc=#
4Eny\	.	4Eny\	.	.	4g\	.	.	4En\
4F\	.	4F\	.	2A/	4a\	2cc\	.	4F\
!	!	!	!	!	!LO:TX:t=P:problem:kreska pseudotaktowa	!	!	!LO:N:acc=#
4E\	.	4E\	.	.	4g\	.	.	4En\
=41-	=41-	=41-	=41-	=41-	=41-	=41-	=41-	=41-
2D/	.	2D/	.	2A/	2f\	2.ff\	2aa\	2D/
*col	*	*col	*	*	*	*	*	*
1G	7	1G	7	2.B-\	2.g\	.	2.gg\	2.G\
.	6	.	6	.	.	4ff\	.	.
.	.	.	.	.	.	2ee-y\	.	.
.	.	.	.	4B-\	4g\	.	4gg\	4G\
*Xcol	*	*Xcol	*	*	*	*	*	*
=42-	=42-	=42-	=42-	=42-	=42-	=42-	=42-	=42-
!LO:TX:t=P:problem:kreska pseudotaktowa	!	!LO:TX:t=P:problem:kreska pseudotaktowa	!	!LO:TX:t=P:problem:kreska pseudotaktowa	!	!	!	!LO:TX:t=P:problem:kreska pseudotaktowa
1.F	.	1.F	.	1.A	1.c	1.ff	1.aa	1.F
*	*	*	*	*	*custos:f	*	*	*
!	!	!	!	!	!LO:LB:g=original	!	!	!
=43-	=43-	=43-	=43-	=43-	=43-	=43-	=43-	=43-
!	!	!	!	!	!	!LO:N:vis=0	!LO:N:vis=0	!LO:N:vis=0
1.FF	.	1.FF	.	8r	1.r	0.r	0.r	0.r
.	.	.	.	8c\	.	.	.	.
.	.	.	.	8c\	.	.	.	.
.	.	.	.	8c\	.	.	.	.
.	.	.	.	8A/	.	.	.	.
.	.	.	.	8c\	.	.	.	.
.	.	.	.	8c\	.	.	.	.
.	.	.	.	8c\	.	.	.	.
.	.	.	.	8F/	.	.	.	.
.	.	.	.	8A/	.	.	.	.
.	.	.	.	8A/	.	.	.	.
.	.	.	.	8A/	.	.	.	.
=44-	=44-	=44-	=44-	=44-	=44-	=44-	=44-	=44-
1.BB-	5	1.BB-	5	8D/	8r	.	.	.
.	6	.	6	8d\	8f\	.	.	.
.	.	.	.	8d\	8f\	.	.	.
.	.	.	.	8d\	8f\	.	.	.
.	.	.	.	8B-\	8d\	.	.	.
.	.	.	.	8d\	8f\	.	.	.
.	.	.	.	8d\	8f\	.	.	.
.	.	.	.	8d\	8f\	.	.	.
.	.	.	.	8G/	8B-/	.	.	.
.	.	.	.	8B-\	8d\	.	.	.
.	.	.	.	8B-\	8d\	.	.	.
!	!	!	!	!	!LO:TX:t=P:problem:kreska pseudotaktowa	!	!	!
.	.	.	.	8B-\	8d\	.	.	.
*	*	*	*	*custos:E	*	*	*	*
!	!	!	!	!LO:LB:g=original	!	!	!	!
=45-	=45-	=45-	=45-	=45-	=45-	=45-	=45-	=45-
1.C	.	1.C	.	2E-/	2G/	8r	8r	1.r
.	.	.	.	.	.	8ee-\	8gg\	.
.	.	.	.	.	.	8ee-\	8gg\	.
.	.	.	.	.	.	8ee-\	8gg\	.
.	.	.	.	2r	2r	8cc\	8ee-y\	.
.	.	.	.	.	.	8ee-\	8gg\	.
.	.	.	.	.	.	8ee-\	8gg\	.
.	.	.	.	.	.	8ee-\	8gg\	.
.	.	.	.	2r	2r	8a/	8cc\	.
.	.	.	.	.	.	8cc\	8ee-\	.
.	.	.	.	.	.	8cc\	8ee-\	.
.	.	.	.	.	.	8cc\	8ee-\	.
=46-	=46-	=46-	=46-	=46-	=46-	=46-	=46-	=46-
2F\	.	2F\	.	1.r	8r	2fny/	2a/	8r
.	.	.	.	.	8a\	.	.	8F\
.	.	.	.	.	8a\	.	.	8F\
.	.	.	.	.	8a\	.	.	8F\
*	*	*	*	*	*	*	*	*custos:D
!	!	!	!	!	!	!	!	!LO:LB:g=original
2D/	.	2D/	.	.	8f\	2r	2r	8D/
.	.	.	.	.	8a\	.	.	8F\
.	.	.	.	.	8a\	.	.	8F\
.	.	.	.	.	8a\	.	.	8F\
2BB-/	.	2BB-/	.	.	8d\	2r	2r	8BB-/
.	.	.	.	.	8f\	.	.	8D/
.	.	.	.	.	8f\	.	.	8D/
!	!	!	!	!	!LO:TX:t=P:problem:kreska pseudotaktowa	!	!	!
.	.	.	.	.	8f\	.	.	8D/
=47-	=47-	=47-	=47-	=47-	=47-	=47-	=47-	=47-
!	!	!	!	!	!	!LO:N:vis=0	!	!
1.GG	5	1.GG	5	8r	8B-/	0.r	1.r	2GG/
.	6	.	6	8d\	8b-\	.	.	.
.	.	.	.	8d\	8b-\	.	.	.
.	.	.	.	8d\	8b-\	.	.	.
.	.	.	.	8B-\	8g\	.	.	2r
.	.	.	.	8d\	8b-\	.	.	.
.	.	.	.	8d\	8b-\	.	.	.
.	.	.	.	8d\	8b-\	.	.	.
!	!	!	!	!	!	!	!	!LO:TX:t=P:problem:kreska pseudotaktowa
.	.	.	.	8G/	8e-\	.	.	2r
.	.	.	.	8B-\	8g\	.	.	.
.	.	.	.	8B-\	8g\	.	.	.
.	.	.	.	8B-\	8g\	.	.	.
=48-	=48-	=48-	=48-	=48-	=48-	=48-	=48-	=48-
1C	5	1C	5	2E-/	2c/	.	8r	8r
.	6	.	6	.	.	.	8ee-\	8c\
.	.	.	.	.	.	.	8ee-\	8c\
.	.	.	.	.	.	.	8ee-\	8c\
.	.	.	.	2r	2r	.	8cc\	8Any\
.	.	.	.	.	.	.	8ee-\	8c\
.	.	.	.	.	.	.	8ee-\	8c\
.	.	.	.	.	.	.	8ee-\	8c\
!	!	!	!	!	!LO:TX:t=P:problem:kreska pseudotaktowa	!	!	!
2F\	.	2F\	.	2r	2r	.	8a/	8F\
.	.	.	.	.	.	.	8cc\	8A\
.	.	.	.	.	.	.	8cc\	8A\
.	.	.	.	.	.	.	8cc\	8A\
*	*	*	*	*	*custos:f	*	*	*
!	!	!	!	!	!LO:LB:g=original	!	!	!
=49-	=49-	=49-	=49-	=49-	=49-	=49-	=49-	=49-
!	!	!	!	!LO:N:vis=0	!	!	!	!
1.BB-	5	1.D	5	0.r	8r	8r	2f/	2D/
.	6	.	6	.	8f\	8aa\	.	.
.	.	.	.	.	8f\	8aa\	.	.
.	.	.	.	.	8f\	8aa\	.	.
.	.	.	.	.	8d\	8ff\	2r	2r
.	.	.	.	.	8f\	8aa\	.	.
.	.	.	.	.	8f\	8aa\	.	.
.	.	.	.	.	8f\	8aa\	.	.
!	!	!	!	!	!	!	!	!LO:TX:t=P:problem:kreska pseudotaktowa
.	.	.	.	.	8B-/	8dd\	2r	2r
.	.	.	.	.	8d\	8ff\	.	.
.	.	.	.	.	8d\	8ff\	.	.
!	!	!	!	!	!LO:TX:t=P:problem:kreska pseudotaktowa	!	!	!
.	.	.	.	.	8d\	8ff\	.	.
*	*	*	*	*	*	*custos:b	*	*
!	!	!	!	!	!	!LO:LB:g=original	!	!
=50-	=50-	=50-	=50-	=50-	=50-	=50-	=50-	=50-
!	!	!	!	!	!	!	!LO:N:vis=0	!
2E-y\	.	2E-y\	.	.	2G/	8b-y/	0.r	8r
.	.	.	.	.	.	8gg\	.	8E-y\
.	.	.	.	.	.	8gg\	.	8E-\
.	.	.	.	.	.	8gg\	.	8E-\
2C/	.	2C/	.	.	2r	8ee-\	.	8C/
.	.	.	.	.	.	8gg\	.	8E-\
.	.	.	.	.	.	8gg\	.	8E-\
.	.	.	.	.	.	8gg\	.	8E-\
2AA-X/	.	2AA-X/	.	.	2r	8cc\	.	8AA-X/
.	.	.	.	.	.	8ee-\	.	8C/
.	.	.	.	.	.	8ee-\	.	8C/
.	.	.	.	.	.	8ee-\	.	8C/
=51-	=51-	=51-	=51-	=51-	=51-	=51-	=51-	=51-
!	!	!	!	!	!	!	! 	!
1.FF	5	1.FF	5	8r	8r	2a/	.	1.FF
.	6	.	6	8c\	8a\	.	.	.
.	.	.	.	8c\	8a\	.	.	.
.	.	.	.	8c\	8a\	.	.	.
.	.	.	.	8A/	8f\	2r	.	.
.	.	.	.	8c\	8a\	.	.	.
.	.	.	.	8c\	8a\	.	.	.
.	.	.	.	8c\	8a\	.	.	.
!	!	!	!	!	!	!LO:TX:t=P:problem:kreska pseudotaktowa	!	!
.	.	.	.	8F/	8d\	2r	.	.
.	.	.	.	8A/	8f\	.	.	.
.	.	.	.	8A/	8f\	.	.	.
!	!	!	!	!	!LO:TX:t=P:problem:kreska pseudotaktowa	!	!	!
.	.	.	.	8A/	8f\	.	.	.
*	*	*	*	*	*	*	*custos:bb	*
!	!	!	!	!	!	!	!LO:PB:g=original	!
=52-	=52-	=52-	=52-	=52-	=52-	=52-	=52-	=52-
1.GG	5	1.GG	5	2D/	2B-/	8r	8r	1.GG
.	6	.	6	.	.	8dd\	8bb-\	.
.	.	.	.	.	.	8dd\	8bb-\	.
.	.	.	.	.	.	8dd\	8bb-\	.
.	.	.	.	2r	2r	8b-/	8gg\	.
.	.	.	.	.	.	8dd\	8bb-\	.
.	.	.	.	.	.	8dd\	8bb-\	.
.	.	.	.	.	.	8dd\	8bb-\	.
.	.	.	.	2r	2r	8g/	8ee-\	.
.	.	.	.	.	.	8b-/	8gg\	.
.	.	.	.	.	.	8b-/	8gg\	.
.	.	.	.	.	.	8b-/	8gg\	.
=53-	=53-	=53-	=53-	=53-	=53-	=53-	=53-	=53-
1.AA-X	5	1.AA-X	5	8r	1.r	1.e-	8cc\	1.AA-X
.	6	.	6	8e-\	.	.	8ccc\	.
.	.	.	.	8e-\	.	.	8ccc\	.
.	.	.	.	8e-\	.	.	8ccc\	.
.	.	.	.	8c\	.	.	8aa-X\	.
.	.	.	.	8e-\	.	.	8ccc\	.
.	.	.	.	8e-\	.	.	8ccc\	.
.	.	.	.	8e-\	.	.	8ccc\	.
!	!	!	!	!LO:SIC:v:o=8A/	!	!	!	!
.	.	.	.	8A-/	.	.	8ff\	.
.	.	.	.	8c\	.	.	8aa-X\	.
.	.	.	.	8c\	.	.	8aa-\	.
.	.	.	.	8c\	.	.	8aa-\	.
*	*	*	*	*custos:F	*	*	*	*custos:BB
!	!	!	!	!LO:LB:g=original	!	!	!	!LO:LB:g=original
=54-	=54-	=54-	=54-	=54-	=54-	=54-	=54-	=54-
[1.BB-	3	[1.BB-	3	1F	8r	1.b-	1dd	[1.BB-
.	4	.	4	.	8b-\	.	.	.
.	.	.	.	.	8b-\	.	.	.
.	.	.	.	.	8b-\	.	.	.
.	.	.	.	.	8g\	.	.	.
.	.	.	.	.	8b-\	.	.	.
.	.	.	.	.	8b-\	.	.	.
.	.	.	.	.	8b-\	.	.	.
.	.	.	.	2G/	8e-\	.	2ee-\	.
.	.	.	.	.	8g\	.	.	.
.	.	.	.	.	8g\	.	.	.
.	.	.	.	.	8g\	.	.	.
*	*	*	*	*	*custos:f	*	*	*
!	!	!	!	!	!LO:LB:g=original	!	!	!
=55-	=55-	=55-	=55-	=55-	=55-	=55-	=55-	=55-
1.BB-]	4	1.BB-]	4	1.B-	1.f	1.b-	1ee-	1.BB-]
.	3	.	3	.	.	.	2dd\	.
=56-	=56-	=56-	=56-	=56-	=56-	=56-	=56-	=56-
!	!	!	!	!LO:TX:t=P:problem:kreska pseudotaktowa	!LO:TX:t=P:problem:kreska pseudotaktowa	!LO:TX:t=P:problem:kreska pseudotaktowa	!LO:TX:t=P:problem:kreska pseudotaktowa	!LO:TX:t=P:problem:kreska pseudotaktowa
1.EE-	.	1.EE-	.	1.G	1.e-	1.b-	1.ee-	1.EE-
*custos:C	*	*custos:C	*	*	*	*	*	*
!LO:LB:g=original	!	!LO:LB:g=original	!	!	!	!	!	!
=57-	=57-	=57-	=57-	=57-	=57-	=57-	=57-	=57-
!	!	!	!	!LO:N:acc=#	!	!	!	!
1C	#n	1C	#n	2.En/	2.c/	2.cc\	2.gg\	2.C/
.	.	.	.	4E/	4c/	4cc\	4gg\	4C/
2FF/	.	2FF/	.	2F/	2c/	2a/	2ff\	2FF/
=58-	=58-	=58-	=58-	=58-	=58-	=58-	=58-	=58-
!	!	!	!	!	!	!	!	!LO:TX:t=P:problem:kreska pseudotaktowa
1.BB-	.	1.BB-	.	1.F	1.d	4b-/	1.ff	1.BB-
.	.	.	.	.	.	4a/	.	.
.	.	.	.	.	.	4b-/	.	.
.	.	.	.	.	.	4cc\	.	.
.	.	.	.	.	.	2dd\	.	.
*	*	*	*	*	*	*custos:dd	*	*
!	!	!	!	!	!	!LO:LB:g=original	!	!
=59-	=59-	=59-	=59-	=59-	=59-	=59-	=59-	=59-
2BB-/	.	2BB-/	.	2B-\	2d\	2dd\	2ff\	2BB-/
*col	*	*col	*	*col	*col	*	*	*col
1C	.	1C	.	1G	1e-	2.cc\	2.ee-\	1C
.	.	.	.	.	.	4dd\	4ff\	.
*Xcol	*	*Xcol	*	*Xcol	*Xcol	*	*custos:dd	*Xcol
!	!	!	!	!	!	!	!LO:LB:g=original	!
=60-	=60-	=60-	=60-	=60-	=60-	=60-	=60-	=60-
2D/	.	2D/	.	2d\	2f\	2b-/	2.dd\	2D/
*col	*	*col	*	*	*col	*	*	*col
1E-	7	1E-	7	2B-\	1g	2.g/	.	1E-
.	6	.	6	.	.	.	4dd\	.
.	.	.	.	2c\	.	.	2cc\	.
.	.	.	.	.	.	4g/	.	.
*Xcol	*	*Xcol	*	*	*Xcol	*	*	*Xcol
=61-	=61-	=61-	=61-	=61-	=61-	=61-	=61-	=61-
!	!	!LO:TX:t=P:problem:znaki przykluczowe	!	!	!	!	!	!
1.D	#	1.D	#	1.A	1.f#X	1.a	1.dd	1.D
*clefC4	*	*clefC4	*	*	*	*	*	*
=62-	=62-	=62-	=62-	=62-	=62-	=62-	=62-	=62-
!	!	!	!	!	!LO:N:acc=-	!	!	!LO:N:vis=0
2d\	6	2d\	6	2d\	2fn\	2.b-/	2dd\	0.r
!LO:N:acc=#	!	!LO:N:acc=#	!	!LO:N:acc=#	!	!	!	!
2en\	6 5	2en\	6 5	2en\	2g\	.	2.cc\	.
.	.	.	.	.	.	4cc\	.	.
!	!	!	!	!	!	!LO:TX:t=P:problem:kreska pseudotaktowa	!	!
2f\	.	2f\	.	2f\	2a\	[y2a/	.	.
.	.	.	.	.	.	.	4dd\	.
=63-	=63-	=63-	=63-	=63-	=63-	=63-	=63-	=63-
!	!	!	!	!	!	!LO:N:xstem:cue	!	!
2B-\	9	2B-\	9	2B-\	2d\	4a/]	2b-/	.
.	.	.	.	.	.	4b-/	.	.
2c\	6 5	2c\	6 5	2c\	2e-\	2g/	2.a/	.
2d\	#	2d\	#	2d\	2d\	2f#X/	.	.
.	.	.	.	.	.	.	4b-/	.
=64-	=64-	=64-	=64-	=64-	=64-	=64-	=64-	=64-
!LO:TX:t=P:problem:kreska pseudotaktowa	!	!LO:TX:t=P:problem:kreska pseudotaktowa	!	!LO:TX:t=P:problem:kreska pseudotaktowa	!	!LO:TX:t=P:problem:kreska pseudotaktowa	!	!
!LO:TX:t=P:problem:znaki przykluczowe	!	!LO:TX:t=P:problem:znaki przykluczowe	!	!	!	!	!	!
1.G	.	1.G	.	1.G	1.d	1.g	1.g	1.r
*clefF4	*	*clefF4	*	*	*	*	*	*
=65-	=65-	=65-	=65-	=65-	=65-	=65-	=65-	=65-
2G\	6	2G\	6	2B-\	2e-\	2.ee-\	2gg\	2G\
*	*	*	*	*	*col	*	*	*
2A\	6 5	2A\	6 5	2c\	1f	.	2.ff\	2A\
.	.	.	.	.	.	4ff\	.	.
!	!	!	!	!	!	!LO:TX:t=P:problem:kreska pseudotaktowa	!	!
2B-\	.	2B-\	.	2d\	.	[y2dd\	.	2B-\
.	.	.	.	.	.	.	4gg\	.
*	*	*	*	*	*Xcol	*	*	*
=66-	=66-	=66-	=66-	=66-	=66-	=66-	=66-	=66-
!	!	!	!	!	!	!LO:N:xstem:cue	!	!
2E-\	7	2E-\	7	2G/	2g\	4dd\]	2ee-\	2E-\
.	.	.	.	.	.	4ee-\	.	.
2F\	6 5	2F\	6 5	2A/	2f\	2cc\	2.dd\	2F\
!	!	!	!	!LO:TX:t=P:problem:kreska pseudotaktowa	!LO:TX:t=P:problem:kreska pseudotaktowa	!LO:N:acc=#	!	!
2G\	#n	2G\	#n	2G/	2d\	2bn/	.	2G\
.	.	.	.	.	.	.	4ee-\	.
=67-	=67-	=67-	=67-	=67-	=67-	=67-	=67-	=67-
1.C	.	1.C	.	8G/	8e-\	1cc	1cc	1C
.	.	.	.	8e-y\	8g\	.	.	.
.	.	.	.	8e-\	8g\	.	.	.
.	.	.	.	8e-\	8g\	.	.	.
.	.	.	.	8c\	8e-\	.	.	.
.	.	.	.	8e-\	8g\	.	.	.
.	.	.	.	8e-\	8g\	.	.	.
.	.	.	.	8e-\	8g\	.	.	.
*	*	*	*	*custos:A	*	*	*	*
!	!	!	!	!LO:LB:g=original	!	!	!	!LO:TX:t=P:problem:kreska pseudotaktowa
.	.	.	.	8A/	8c/	2r	2r	2r
.	.	.	.	8c\	8e-\	.	.	.
.	.	.	.	8c\	8e-\	.	.	.
.	.	.	.	8c\	8e-\	.	.	.
*	*	*	*	*	*custos:A	*	*	*
!	!	!	!	!	!LO:LB:g=original	!	!	!
=68-	=68-	=68-	=68-	=68-	=68-	=68-	=68-	=68-
1.F	.	1.F	.	2F/	2A/	1.r	1.r	8r
.	.	.	.	.	.	.	.	8c\
.	.	.	.	.	.	.	.	8c\
.	.	.	.	.	.	.	.	8c\
.	.	.	.	2r	2r	.	.	8A\
.	.	.	.	.	.	.	.	8c\
.	.	.	.	.	.	.	.	8c\
.	.	.	.	.	.	.	.	8c\
!	!	!	!	!LO:TX:t=P:problem:kreska pseudotaktowa	!	!	!	!
.	.	.	.	2r	2r	.	.	8F\
.	.	.	.	.	.	.	.	8A\
.	.	.	.	.	.	.	.	8A\
.	.	.	.	.	.	.	.	8A\
=69-	=69-	=69-	=69-	=69-	=69-	=69-	=69-	=69-
!	!	!	!	!LO:N:vis=0	!	!	!	!
1.D	5	1.D	5	0.r	1.r	8r	8r	1.D
.	6	.	6	.	.	8ff\	8aany\	.
.	.	.	.	.	.	8ff\	8aa\	.
.	.	.	.	.	.	8ff\	8aa\	.
.	.	.	.	.	.	8dd\	8ff\	.
.	.	.	.	.	.	8ff\	8aa\	.
.	.	.	.	.	.	8ff\	8aa\	.
.	.	.	.	.	.	8ff\	8aa\	.
.	.	.	.	.	.	8b-y/	8dd\	.
.	.	.	.	.	.	8dd\	8ff\	.
.	.	.	.	.	.	8dd\	8ff\	.
.	.	.	.	.	.	8dd\	8ff\	.
*	*	*	*	*	*	*custos:g	*	*
!	!	!	!	!	!	!LO:LB:g=original	!	!
=70-	=70-	=70-	=70-	=70-	=70-	=70-	=70-	=70-
1.E-	5	1.E-	5	.	8r	8g/	2b-/	1.E-
.	6	.	6	.	8g\	8bb-\	.	.
.	.	.	.	.	8g\	8bb-\	.	.
.	.	.	.	.	8g\	8bb-\	.	.
.	.	.	.	.	8e-\	8gg\	2r	.
.	.	.	.	.	8g\	8bb-\	.	.
.	.	.	.	.	8g\	8bb-\	.	.
.	.	.	.	.	8g\	8bb-\	.	.
.	.	.	.	.	8c/	8ee-\	2r	.
.	.	.	.	.	8e-\	8gg\	.	.
.	.	.	.	.	8e-\	8gg\	.	.
.	.	.	.	.	8e-\	8gg\	.	.
*	*	*	*	*	*	*	*	*custos:F
!	!	!	!	!	!	!	!	!LO:LB:g=original
=71-	=71-	=71-	=71-	=71-	=71-	=71-	=71-	=71-
1.F	3	1.F	3	8r	1A	1cc	8r	[1.F
.	4	.	4	8f\	.	.	8aa\	.
.	.	.	.	8f\	.	.	8aa\	.
.	.	.	.	8f\	.	.	8aa\	.
*	*	*	*	*	*	*	*custos:ff	*
!	!	!	!	!	!	!	!LO:LB:g=original	!
.	.	.	.	8d\	.	.	8ff\	.
.	.	.	.	8f\	.	.	8aa\	.
.	.	.	.	8f\	.	.	8aa\	.
.	.	.	.	8f\	.	.	8aa\	.
.	.	.	.	8B-\	2B-/	2dd\	8dd\	.
.	.	.	.	8d\	.	.	8ff\	.
.	.	.	.	8d\	.	.	8ff\	.
.	.	.	.	8d\	.	.	8ff\	.
=72-	=72-	=72-	=72-	=72-	=72-	=72-	=72-	=72-
1.F	4	1.F	4	1.c	1B-	2ff\	2ff\	1.F]
*	*	*	*	*	*	*col	*	*
.	3	.	3	.	.	1cc	2r	.
!	!	!	!	!	!	!	!LO:TX:t=P:problem:kreska pseudotaktowa	!
.	.	.	.	.	2A/	.	2r	.
*	*	*	*	*	*	*Xcol	*	*
=73-	=73-	=73-	=73-	=73-	=73-	=73-	=73-	=73-
1.BB-	.	1.BB-	.	1.B-	1B-	1dd	8r	1.BB-
.	.	.	.	.	.	.	8ff\	.
.	.	.	.	.	.	.	8ff\	.
.	.	.	.	.	.	.	8ff\	.
.	.	.	.	.	.	.	8dd\	.
.	.	.	.	.	.	.	8ff\	.
.	.	.	.	.	.	.	8ff\	.
.	.	.	.	.	.	.	8ff\	.
!	!	!	!	!	!LO:TX:t=P:problem:kreska pseudotaktowa	!LO:TX:t=P:problem:kreska pseudotaktowa	!	!
.	.	.	.	.	2r	2r	8b-/	.
.	.	.	.	.	.	.	8dd\	.
.	.	.	.	.	.	.	8dd\	.
.	.	.	.	.	.	.	8dd\	.
*custos:BB	*	*custos:BB	*	*	*	*	*	*
!LO:LB:g=original	!	!LO:LB:g=original	!	!	!	!	!	!
=74-	=74-	=74-	=74-	=74-	=74-	=74-	=74-	=74-
1.BB-	5	1.BB-	5	1.r	8r	8r	2b-/	1.r
.	6	.	6	.	8d\	8ff\	.	.
.	.	.	.	.	8d\	8ff\	.	.
.	.	.	.	.	8d\	8ff\	.	.
.	.	.	.	.	8B-/	8dd\	2r	.
.	.	.	.	.	8d\	8ff\	.	.
.	.	.	.	.	8d\	8ff\	.	.
.	.	.	.	.	8d\	8ff\	.	.
.	.	.	.	.	8G/	8b-/	2r	.
.	.	.	.	.	8B-/	8dd\	.	.
.	.	.	.	.	8B-/	8dd\	.	.
.	.	.	.	.	8B-/	8dd\	.	.
=75-	=75-	=75-	=75-	=75-	=75-	=75-	=75-	=75-
2B-\	5	2B-\	5	8r	2f\	2b-/	1.r	8r
.	.	.	.	8d\	.	.	.	8B-\
.	.	.	.	8d\	.	.	.	8B-\
.	.	.	.	8d\	.	.	.	8B-\
2G\	.	2G\	.	8B-\	2r	2r	.	8G\
.	.	.	.	8d\	.	.	.	8B-\
.	.	.	.	8d\	.	.	.	8B-\
.	.	.	.	8d\	.	.	.	8B-\
!	!	!	!	!	!LO:TX:t=P:problem:kreska pseudotaktowa	!LO:TX:t=P:problem:kreska pseudotaktowa	!	!
2E-\	.	2E-\	.	8G/	2r	2r	.	8E-\
.	.	.	.	8B-\	.	.	.	8G\
.	.	.	.	8B-\	.	.	.	8G\
!	!	!	!	!LO:TX:t=P:problem:kreska pseudotaktowa	!	!	!	!
.	.	.	.	8B-\	.	.	.	8G\
=76-	=76-	=76-	=76-	=76-	=76-	=76-	=76-	=76-
1.C	5	1.C	5	8E-y/	2r	1.r	8r	1.C
.	6	.	6	8e-\	.	.	8gg\	.
.	.	.	.	8e-\	.	.	8gg\	.
.	.	.	.	8e-\	.	.	8gg\	.
.	.	.	.	8c\	2.e-\	.	8ee-\	.
.	.	.	.	8e-\	.	.	8gg\	.
.	.	.	.	8e-\	.	.	8gg\	.
.	.	.	.	8e-\	.	.	8gg\	.
*	*	*	*	*custos:A	*	*	*	*
!	!	!	!	!LO:LB:g=original	!	!	!	!
.	.	.	.	8A/	.	.	8cc\	.
.	.	.	.	8c\	.	.	8ee-\	.
.	.	.	.	8c\	4e-\	.	8ee-\	.
.	.	.	.	8c\	.	.	8ee-\	.
*	*	*	*	*	*custos:d	*	*custos:a	*
!	!	!	!	!	!LO:LB:g=original	!	!LO:LB:g=original	!
=77-	=77-	=77-	=77-	=77-	=77-	=77-	=77-	=77-
1.D	5 #	1.D	5 #	1F#X	1.d	8r	2a/	[1.D
.	6 4	.	6 4	.	.	8dd\	.	.
.	5 4	.	5 4	.	.	8dd\	.	.
.	.	.	.	.	.	8dd\	.	.
*	*	*	*	*	*	*	*col	*
.	.	.	.	.	.	8b-/	1b-	.
.	.	.	.	.	.	8dd\	.	.
.	.	.	.	.	.	8dd\	.	.
.	.	.	.	.	.	8dd\	.	.
*	*	*	*	*	*	*custos:g	*	*
!	!	!	!	!	!	!LO:LB:g=original	!	!
.	.	.	.	2G/	.	8g/	.	.
.	.	.	.	.	.	8b-/	.	.
.	.	.	.	.	.	8b-/	.	.
.	.	.	.	.	.	8b-/	.	.
*	*	*	*	*	*	*	*Xcol	*
=78-	=78-	=78-	=78-	=78-	=78-	=78-	=78-	=78-
1.D	#	1.D	#	1G	1.d	1.a	1.dd	1.D]
.	.	.	.	2F#X/	.	.	.	.
=79-	=79-	=79-	=79-	=79-	=79-	=79-	=79-	=79-
!	!	!	!	!	!	!LO:TX:t=P:problem:kreska pseudotaktowa	!	!
1GG	.	1GG	.	8G/	1.d	1.g	1.dd	1GG
.	.	.	.	8d\	.	.	.	.
.	.	.	.	8d\	.	.	.	.
.	.	.	.	8d\	.	.	.	.
.	.	.	.	8B-\	.	.	.	.
.	.	.	.	8d\	.	.	.	.
.	.	.	.	8d\	.	.	.	.
.	.	.	.	8d\	.	.	.	.
2G\	.	2G\	.	8G/	.	.	.	2r
.	.	.	.	8B-\	.	.	.	.
.	.	.	.	8B-\	.	.	.	.
.	.	.	.	8B-\	.	.	.	.
=80-	=80-	=80-	=80-	=80-	=80-	=80-	=80-	=80-
1.E-	5	1.E-	5	2E-/	8r	8r	1.r	1.r
.	6	.	6	.	8g\	8bb-\	.	.
.	.	.	.	.	8g\	8bb-\	.	.
.	.	.	.	.	8g\	8bb-\	.	.
.	.	.	.	2r	8e-\	8gg\	.	.
.	.	.	.	.	8g\	8bb-\	.	.
.	.	.	.	.	8g\	8bb-\	.	.
.	.	.	.	.	8g\	8bb-\	.	.
.	.	.	.	2r	8c/	8ee-\	.	.
.	.	.	.	.	8e-\	8gg\	.	.
.	.	.	.	.	8e-\	8gg\	.	.
.	.	.	.	.	8e-\	8gg\	.	.
=81-	=81-	=81-	=81-	=81-	=81-	=81-	=81-	=81-
2F\	.	2F\	.	1.r	2.A/	2cc\	8r	8r
.	.	.	.	.	.	.	8aa\	8F\
.	.	.	.	.	.	.	8aa\	8F\
.	.	.	.	.	.	.	8aa\	8F\
*	*	*	*	*	*	*col	*	*
!	!	!	!	!	!	!LO:TX:t=P:problem:kreska pseudotaktowa	!	!
2D/	.	2D/	.	.	.	1dd	8ff\	8D/
.	.	.	.	.	.	.	8aa\	8F\
.	.	.	.	.	4A/	.	8aa\	8F\
.	.	.	.	.	.	.	8aa\	8F\
2BB-/	.	2BB-/	.	.	2B-/	.	8dd\	8BB-/
.	.	.	.	.	.	.	8ff\	8D/
.	.	.	.	.	.	.	8ff\	8D/
!	!	!	!	!	!	!	!LO:TX:t=P:problem:kreska pseudotaktowa	!
.	.	.	.	.	.	.	8ff\	8D/
*	*	*	*	*	*	*Xcol	*	*
=82-	=82-	=82-	=82-	=82-	=82-	=82-	=82-	=82-
!	!	!	!	!	!	!	!LO:N:acc=#	!
[1.GG	5 3	[1.GG	5 3	8r	2d\	8r	2bn/	1.GG
!	!	!	!	!LO:N:acc=#	!	!	!	!
.	6 4	.	6 4	8Bn\	.	8gg\	.	.
.	.	.	.	8B\	.	8gg\	.	.
.	.	.	.	8B\	.	8gg\	.	.
*	*	*	*	*	*col	*	*	*
.	.	.	.	8G/	1e-	8ee-\	2r	.
!	!	!	!	!LO:N:acc=#	!	!	!	!
.	.	.	.	8BnX\	.	8gg\	.	.
.	.	.	.	8B\	.	8gg\	.	.
.	.	.	.	8B\	.	8gg\	.	.
.	.	.	.	8E-/	.	8cc\	8r	.
.	.	.	.	8c\	.	8ee-\	8gg\	.
.	.	.	.	8c\	.	8ee-\	8gg\	.
!	!	!	!	!	!	!	!LO:TX:t=P:problem:kreska pseudotaktowa	!
.	.	.	.	8c\	.	8ee-\	8gg\	.
*	*	*	*	*	*Xcol	*	*	*
=83-	=83-	=83-	=83-	=83-	=83-	=83-	=83-	=83-
1.GG]	5 4	1.GG]	5 4	1c	2e-\	1.gg	8ee-\	1.GG
.	x 3	.	x 3	.	.	.	8gg\	.
.	.	.	.	.	.	.	8gg\	.
.	.	.	.	.	.	.	8gg\	.
*	*	*	*	*	*col	*	*	*
.	.	.	.	.	1g	.	8cc\	.
.	.	.	.	.	.	.	8ee-\	.
.	.	.	.	.	.	.	8ee-\	.
.	.	.	.	.	.	.	8ee-\	.
!	!	!	!	!LO:N:acc=#	!	!	!	!
.	.	.	.	2Bn\	.	.	2dd\	.
*	*	*	*	*	*Xcol	*	*	*
=84-	=84-	=84-	=84-	=84-	=84-	=84-	=84-	=84-
0C;	.	0C;	.	0c;<	0g;<	0gg;<	0cc	0C;
==-	==-	==-	==-	=||	=||	=||	=||	=||
*-	*-	*-	*-	*-	*-	*-	*-	*-
!!!system-decoration: [(g1)][(g2)](g3)
!!!RDF**kern: > = above
!!!RDF**kern: < = below
!!!ENC: Anastazja Marusiak
!!!END: 2022-11-15
!!!ENC: Katarzyna Serwa
!!!END: 2022-12-04
